art/logos/psx.svg

<svg clip-rule="evenodd" fill-rule="evenodd" stroke-linejoin="round" stroke-miterlimit="2" viewBox="0 0 568 114" xmlns="http://www.w3.org/2000/svg"><g fill-rule="nonzero"><path d="m165.884 28.918v57.54h10.078v-51.363h6.186c4.461 0 6.475.12 7.233.437 1.496.625 3.036 2.529 3.667 4.521.331 1.047.604 3.313.701 5.831.2 5.154-.398 8.356-1.971 10.433-1.641 2.168-2.645 2.51-7.284 2.51h-3.982v6.246l6.257-.121 6.258-.121 2.214-1.047c4.045-1.908 6.982-5.811 8.167-10.84.662-2.808.652-9.086-.021-12.099-.646-2.896-1.991-5.813-3.504-7.579-.633-.738-1.857-1.797-2.712-2.347-2.933-1.882-4.062-2.001-18.356-2.001zm44.535 0v57.54h10.077v-57.54zm126.372 0c-4.514.001-9.158.16-10.32.346-2.623.418-5.682 1.805-7.416 3.372-1.748 1.579-3.236 3.949-4.043 6.44-.502 1.548-.66 2.959-.68 5.933-.029 4.103.316 5.851 1.727 8.614.916 1.798 3.361 4.393 5.039 5.363 1.949 1.13 4.441 1.728 8.727 2.072 3.26.264 4.02.426 5.08 1.129.834.551 1.564 1.453 2.184 2.711.869 1.771.918 2.142.914 5.953-.004 3.801-.057 4.176-.896 5.771-.566 1.084-1.385 2.032-2.242 2.602l-1.354.895-8.563.103-8.553.092v6.145h9.73c5.92 0 10.412-.146 11.459-.367 3.984-.838 7.299-3.42 8.908-6.938 1.355-2.963 1.834-6.008 1.656-10.576-.188-4.816-.9-7.44-2.824-10.32-2.391-3.575-5.064-4.801-11.855-5.423-2.512-.23-5.086-.635-5.719-.904-1.398-.592-2.705-2.082-3.281-3.738-.568-1.633-.561-6.361.021-8.359.57-1.973 2.305-3.79 4.135-4.338.883-.266 3.852-.396 8.848-.396h7.527v-6.18h-8.209zm115.806 0v8.453h10.078v-8.453zm-96.902 6.502.104 20.723c.09 20.398.105 20.754.803 22.604.391 1.033 1.227 2.58 1.857 3.443 1.293 1.76 2.973 2.994 5.1 3.738 1.023.359 2.762.498 6.064.51l4.633.02v-6.176h-3.027c-2.881 0-3.07-.039-3.891-.895-.508-.529-1.006-1.563-1.207-2.52-.221-1.033-.313-6.406-.256-14.791l.092-13.165 10.89-.184v-6.156h-11.052v-7.151zm69.596 0v20.469c0 19.797.023 20.54.672 22.512.771 2.348 2.338 4.672 4.043 5.973.65.498 1.939 1.166 2.863 1.482 1.289.445 2.73.582 6.156.59l4.469.01v-6.176h-2.885c-2.41 0-3.02-.104-3.727-.662-.467-.365-.996-1.205-1.18-1.867-.205-.74-.336-6.584-.336-15.106v-13.897h11.074l-.094-3.007-.092-3.008-5.445-.09-5.441-.093v-7.13zm-8.889 7.069-10.758.174c-11.568.178-12.766.32-16.162 2.042-3.799 1.925-6.447 5.663-7.648 10.788-.502 2.138-.59 3.979-.59 12.109 0 9.23.027 9.661.742 11.428 1.441 3.561 3.586 5.76 6.674 6.826 1.361.471 2.781.58 7.457.588l5.771.012v-6.178h-4.043c-3.828 0-4.088-.047-4.998-.813-.602-.506-1.092-1.35-1.32-2.256-.453-1.793-.475-15.937-.031-19.361.631-4.865 1.727-7.146 4.014-8.371.787-.42 2.146-.57 5.975-.67l4.957-.132v37.781h10.402v-12.141c0-6.674-.104-16.566-.225-21.982zm-152.672.011-10.808.162c-11.746.181-13.433.396-16.64 2.113-3.725 1.994-6.385 5.936-7.508 11.123-.713 3.295-1.047 16.791-.498 20.054.48 2.846 1.811 5.713 3.404 7.334 1.172 1.192 3.117 2.368 4.743 2.864.447.138 3.481.259 6.745.272l5.932.031v-6.173h-4.154c-4.686 0-5.303-.221-6.186-2.234-.395-.897-.549-2.662-.65-7.416-.146-6.756.324-14.086 1.056-16.52.657-2.185 1.881-3.863 3.321-4.57 1.052-.516 2.019-.613 6.125-.62l4.875-.011.082 18.773.082 18.771h10.078v-21.98zm10.85.071c-2.928 0-5.319.037-5.313.082.004.045 3.346 9.857 7.426 21.811l7.416 21.738-4.176 10.77c-2.295 5.927-4.175 10.818-4.175 10.869 0 .05 1.993.05 4.429 0l4.43-.092 12.951-32.508c7.127-17.879 12.963-32.542 12.963-32.588.002-.045-2.102-.082-4.684-.082-3.404 0-4.766.113-4.947.408-.137.223-2.627 6.543-5.525 14.049-2.897 7.504-5.397 13.688-5.565 13.744-.17.057-2.472-6.266-5.108-14.049l-4.796-14.152zm178.017 0v43.884h10.078v-43.884zm60.951.162-.094 21.861h.012l-.092 21.861h10.412v-37.779l4.957.133c5.262.137 6.141.356 7.619 1.939 1.158 1.24 1.986 3.499 2.355 6.439.191 1.539.348 8.603.348 16.01v13.259h10.074l-.01-12.922c-.002-13.705-.242-16.957-1.563-20.673-1.797-5.053-5.104-8.049-10.482-9.508-1.779-.483-3.68-.567-12.811-.59zm-25.478.092c-2.842 0-5.674.357-7.709 1.057-2.709.932-4.41 2.023-6.117 3.921-1.852 2.06-3.193 4.849-3.98 8.259-.48 2.09-.596 3.845-.566 8.938.025 5.359.133 6.729.711 8.849.979 3.596 2.26 6.017 4.205 7.985 1.916 1.938 4.748 3.422 7.936 4.146 1.434.324 3.422.427 6.461.345 5.238-.14 7.73-.814 10.787-2.904 2.563-1.752 4.5-4.517 5.598-7.996 1.57-4.967 1.846-13.156.641-19.199-.586-2.936-2.01-6.119-3.598-8.056-1.492-1.821-3.936-3.418-6.551-4.287-2.115-.701-4.976-1.058-7.818-1.058zm.123 6.054c1.475 0 2.953.285 4.113.873 1.514.768 2.465 2.104 3.291 4.632.541 1.653.676 3.158.803 8.625.166 7.141-.162 10.506-1.27 13.043-.781 1.793-2.045 3.186-3.434 3.779-.594.254-2.156.446-3.605.446-2.055 0-2.844-.146-3.992-.75-.902-.478-1.773-1.295-2.336-2.205-1.469-2.37-1.953-5.479-1.973-12.483-.016-6.668.328-9.348 1.557-12.06.416-.92 1.256-2.043 1.879-2.52 1.184-.903 3.07-1.38 4.967-1.38z" fill="#e2e2e2"/><path d="m559.435 83.913h.77v-2.836h1.756c.48 0 .795.078.939.232.139.148.229.492.268 1.031l.068.836c.012.16.027.293.055.4.021.114.063.228.117.334h.807v-.209c-.064-.058-.107-.125-.135-.205-.037-.095-.064-.211-.072-.351l-.07-.972c-.047-.473-.109-.797-.189-.973-.117-.264-.322-.422-.611-.477.311-.07.555-.244.742-.525.189-.285.283-.633.283-1.039 0-.334-.068-.625-.207-.871-.145-.274-.352-.486-.617-.635-.217-.119-.477-.197-.777-.234-.199-.022-.508-.035-.914-.035h-2.209v6.527h-.004zm.772-3.538v-2.289h1.557c.305 0 .523.009.662.022.205.033.369.093.488.175.146.096.256.219.328.368.08.158.121.334.121.526 0 .433-.121.738-.367.921-.246.185-.648.274-1.207.274z"/><path d="m560.436 84.912h-1.002v-1 1-1h-.997v-7.527h3.209c.429 0 .757.013 1.035.043.399.049.785.157 1.144.354.428.234.787.604 1 1.017.236.419.338.894.336 1.361.002.557-.134 1.12-.451 1.595-.013.021-.026.041-.041.061.164.395.204.75.265 1.287l.07.963.21.188v1.657h-2.417l-.279-.543c-.093-.183-.168-.383-.197-.544-.051-.211-.068-.39-.081-.565l-.07-.845c-.007-.135-.021-.246-.034-.332-.05-.004-.108-.006-.174-.006h-.757v2.837h-.769zm.77-5.539.582-.001c.226 0 .396-.019.5-.042.029-.007.05-.012.065-.016.005-.03.009-.075.009-.136-.001-.032-.004-.049-.009-.063-.015-.005-.035-.011-.027-.011-.08-.009-.28-.02-.563-.02h-.557zm-1.772 4.539v1z" fill="#e5e5e5"/><path d="m555.467 80.648c0-3.486 2.807-6.316 6.286-6.355.023-.002.047-.003.07-.003 3.508.002 6.354 2.846 6.355 6.358h-.002c0 3.51-2.844 6.355-6.354 6.355s-6.355-2.843-6.355-6.355zm2 0c.004 2.407 1.948 4.352 4.356 4.356 2.403-.005 4.35-1.953 4.354-4.356-.005-2.365-1.885-4.283-4.227-4.354h-.128c-2.406.003-4.351 1.948-4.355 4.354zm3.952-4.442c.126.053.22.072.294.079-.088-.01-.173-.031-.255-.063-.059-.023-.115-.052-.17-.086-.013-.008-.025-.017-.038-.025.06.042.119.074.169.095zm-.47-.431c-.002-.003-.003-.005-.005-.008.002.003.003.005.005.008zm-.012-.021c-.002-.004-.003-.007-.005-.01.002.004.003.006.005.01zm-.113-.466c0-.114.021-.227.059-.333-.031.078-.062.186-.059.333z" fill="#e5e5e5"/><g transform="translate(-61.6856 -312.868)"><path d="m142.207 336.374-.099 89.525-23.986-7.801v-105.23l30.618 8.096c19.599 5.267 31.592 15.507 31.398 33.45-.195 20.873-9.849 29.257-28.667 23.796v-41.154c-.002-4.976-9.264-5.267-9.264-.682z" fill="#de0029"/><path d="m107.102 400.738-11.311 3.805c-7.314 2.537-13.554-3.412-6.826-5.854l5.46-1.947-20.575-6.537c-6.338 2.148-12.288 6.73-11.896 13.168.39 6.533 15.309 8.096 26.815 9.947 10.726 1.754 20.477.779 29.351-2.342v-6.73zm35.2 25.162 20.965-7.313-21.16-6.729v13.558z" fill="#f3c202"/><path d="m198.08 406.299.389-.099c9.167-3.218 13.067-7.707 12.092-11.898-1.56-7.021-12.773-10.826-30.033-12.094-12.384-.877-24.572 1.854-36.468 5.947l-1.95.686 21.355 6.633 12.48-4.197c13.067-2.436 18.333 1.854 5.755 5.854l-6.242 2.146zm-79.958-31.013-9.459 3.217 9.459 2.926z" fill="#326db3"/><path d="m163.268 418.585 34.812-12.286-22.624-7.022-33.348 11.41v1.17zm-45.146-21.552-11.019 3.705 11.019 3.512zm23.985 5.755v-13.945l21.355 6.631zm-47.682-6.046 23.696-8.485v-6.826l-9.459-2.927-34.324 11.605c-.097 0-.292.096-.487.096z" fill="#00aa9e"/></g></g></svg>

<?xml version="1.0" encoding="UTF-8" standalone="no"?>
<!DOCTYPE svg PUBLIC "-//W3C//DTD SVG 1.1//EN" "http://www.w3.org/Graphics/SVG/1.1/DTD/svg11.dtd">
<svg width="100%" height="100%" viewBox="0 0 568 114" version="1.1" xmlns="http://www.w3.org/2000/svg" xmlns:xlink="http://www.w3.org/1999/xlink" xml:space="preserve" xmlns:serif="http://www.serif.com/" style="fill-rule:evenodd;clip-rule:evenodd;stroke-linejoin:round;stroke-miterlimit:2;">
    <g>
        <path id="path2998_1_" d="M165.884,28.918L165.884,86.458L175.962,86.458L175.962,35.095L182.148,35.095C186.609,35.095 188.623,35.215 189.381,35.532C190.877,36.157 192.417,38.061 193.048,40.053C193.379,41.1 193.652,43.366 193.749,45.884C193.949,51.038 193.351,54.24 191.778,56.317C190.137,58.485 189.133,58.827 184.494,58.827L180.512,58.827L180.512,65.073L186.769,64.952L193.027,64.831L195.241,63.784C199.286,61.876 202.223,57.973 203.408,52.944C204.07,50.136 204.06,43.858 203.387,40.845C202.741,37.949 201.396,35.032 199.883,33.266C199.25,32.528 198.026,31.469 197.171,30.919C194.238,29.037 193.109,28.918 178.815,28.918L165.884,28.918ZM210.419,28.918L210.419,86.458L220.496,86.458L220.496,28.918L210.419,28.918ZM336.791,28.918C332.277,28.919 327.633,29.078 326.471,29.264C323.848,29.682 320.789,31.069 319.055,32.636C317.307,34.215 315.819,36.585 315.012,39.076C314.51,40.624 314.352,42.035 314.332,45.009C314.303,49.112 314.648,50.86 316.059,53.623C316.975,55.421 319.42,58.016 321.098,58.986C323.047,60.116 325.539,60.714 329.825,61.058C333.085,61.322 333.845,61.484 334.905,62.187C335.739,62.738 336.469,63.64 337.089,64.898C337.958,66.669 338.007,67.04 338.003,70.851C337.999,74.652 337.946,75.027 337.107,76.622C336.541,77.706 335.722,78.654 334.865,79.224L333.511,80.119L324.948,80.222L316.395,80.314L316.395,86.459L326.125,86.459C332.045,86.459 336.537,86.313 337.584,86.092C341.568,85.254 344.883,82.672 346.492,79.154C347.847,76.191 348.326,73.146 348.148,68.578C347.96,63.762 347.248,61.138 345.324,58.258C342.933,54.683 340.26,53.457 333.469,52.835C330.957,52.605 328.383,52.2 327.75,51.931C326.352,51.339 325.045,49.849 324.469,48.193C323.901,46.56 323.908,41.832 324.49,39.834C325.06,37.861 326.795,36.044 328.625,35.496C329.508,35.23 332.477,35.1 337.473,35.1L345,35.1L345,28.92L336.791,28.92L336.791,28.918ZM452.597,28.918L452.597,37.371L462.675,37.371L462.675,28.918L452.597,28.918ZM355.695,35.42L355.799,56.143C355.889,76.541 355.904,76.897 356.602,78.747C356.993,79.78 357.829,81.327 358.459,82.19C359.752,83.95 361.432,85.184 363.559,85.928C364.582,86.287 366.321,86.426 369.623,86.438L374.256,86.458L374.256,80.282L371.229,80.282C368.348,80.282 368.159,80.243 367.338,79.387C366.83,78.858 366.332,77.824 366.131,76.867C365.91,75.834 365.818,70.461 365.875,62.076L365.967,48.911L376.857,48.727L376.857,42.571L365.805,42.571L365.805,35.42L355.695,35.42ZM425.291,35.42L425.291,55.889C425.291,75.686 425.314,76.429 425.963,78.401C426.734,80.749 428.301,83.073 430.006,84.374C430.656,84.872 431.945,85.54 432.869,85.856C434.158,86.301 435.599,86.438 439.025,86.446L443.494,86.456L443.494,80.28L440.609,80.28C438.199,80.28 437.589,80.176 436.882,79.618C436.415,79.253 435.886,78.413 435.702,77.751C435.497,77.011 435.366,71.167 435.366,62.645L435.366,48.748L446.44,48.748L446.346,45.741L446.254,42.733L440.809,42.643L435.368,42.55L435.368,35.42L425.291,35.42ZM416.402,42.489L405.644,42.663C394.076,42.841 392.878,42.983 389.482,44.705C385.683,46.63 383.035,50.368 381.834,55.493C381.332,57.631 381.244,59.472 381.244,67.602C381.244,76.832 381.271,77.263 381.986,79.03C383.427,82.591 385.572,84.79 388.66,85.856C390.021,86.327 391.441,86.436 396.117,86.444L401.888,86.456L401.888,80.278L397.845,80.278C394.017,80.278 393.757,80.231 392.847,79.465C392.245,78.959 391.755,78.115 391.527,77.209C391.074,75.416 391.052,61.272 391.496,57.848C392.127,52.983 393.223,50.702 395.51,49.477C396.297,49.057 397.656,48.907 401.485,48.807L406.442,48.675L406.442,86.456L416.844,86.456L416.844,74.315C416.844,67.641 416.74,57.749 416.619,52.333L416.402,42.489ZM263.73,42.5L252.922,42.662C241.176,42.843 239.489,43.058 236.282,44.775C232.557,46.769 229.897,50.711 228.774,55.898C228.061,59.193 227.727,72.689 228.276,75.952C228.756,78.798 230.087,81.665 231.68,83.286C232.852,84.478 234.797,85.654 236.423,86.15C236.87,86.288 239.904,86.409 243.168,86.422L249.1,86.453L249.1,80.28L244.946,80.28C240.26,80.28 239.643,80.059 238.76,78.046C238.365,77.149 238.211,75.384 238.11,70.63C237.964,63.874 238.434,56.544 239.166,54.11C239.823,51.925 241.047,50.247 242.487,49.54C243.539,49.024 244.506,48.927 248.612,48.92L253.487,48.909L253.569,67.682L253.651,86.453L263.729,86.453L263.729,64.473L263.73,42.5ZM274.58,42.571C271.652,42.571 269.261,42.608 269.267,42.653C269.271,42.698 272.613,52.51 276.693,64.464L284.109,86.202L279.933,96.972C277.638,102.899 275.758,107.79 275.758,107.841C275.758,107.891 277.751,107.891 280.187,107.841L284.617,107.749L297.568,75.241C304.695,57.362 310.531,42.699 310.531,42.653C310.533,42.608 308.429,42.571 305.847,42.571C302.443,42.571 301.081,42.684 300.9,42.979C300.763,43.202 298.273,49.522 295.375,57.028C292.478,64.532 289.978,70.716 289.81,70.772C289.64,70.829 287.338,64.506 284.702,56.723L279.906,42.571L274.58,42.571ZM452.597,42.571L452.597,86.455L462.675,86.455L462.675,42.571L452.597,42.571ZM513.548,42.733L513.454,64.594L513.466,64.594L513.374,86.455L523.786,86.455L523.786,48.676L528.743,48.809C534.005,48.946 534.884,49.165 536.362,50.748C537.52,51.988 538.348,54.247 538.717,57.187C538.908,58.726 539.065,65.79 539.065,73.197L539.065,86.456L549.139,86.456L549.129,73.534C549.127,59.829 548.887,56.577 547.566,52.861C545.769,47.808 542.462,44.812 537.084,43.353C535.305,42.87 533.404,42.786 524.273,42.763L513.548,42.733ZM488.07,42.825C485.228,42.825 482.396,43.182 480.361,43.882C477.652,44.814 475.951,45.905 474.244,47.803C472.392,49.863 471.051,52.652 470.264,56.062C469.784,58.152 469.668,59.907 469.698,65C469.723,70.359 469.831,71.729 470.409,73.849C471.388,77.445 472.669,79.866 474.614,81.834C476.53,83.772 479.362,85.256 482.55,85.98C483.984,86.304 485.972,86.407 489.011,86.325C494.249,86.185 496.741,85.511 499.798,83.421C502.361,81.669 504.298,78.904 505.396,75.425C506.966,70.458 507.242,62.269 506.037,56.226C505.451,53.29 504.027,50.107 502.439,48.17C500.947,46.349 498.503,44.752 495.888,43.883C493.773,43.182 490.912,42.825 488.07,42.825ZM488.193,48.879C489.668,48.879 491.146,49.164 492.306,49.752C493.82,50.52 494.771,51.856 495.597,54.384C496.138,56.037 496.273,57.542 496.4,63.009C496.566,70.15 496.238,73.515 495.13,76.052C494.349,77.845 493.085,79.238 491.696,79.831C491.102,80.085 489.54,80.277 488.091,80.277C486.036,80.277 485.247,80.131 484.099,79.527C483.197,79.049 482.326,78.232 481.763,77.322C480.294,74.952 479.81,71.843 479.79,64.839C479.774,58.171 480.118,55.491 481.347,52.779C481.763,51.859 482.603,50.736 483.226,50.259C484.41,49.356 486.296,48.879 488.193,48.879Z" style="fill:rgb(226,226,226);fill-rule:nonzero;"/>
    </g>
    <g>
        <path id="path3775_1_" d="M559.435,83.913L560.205,83.913L560.205,81.077L561.961,81.077C562.441,81.077 562.756,81.155 562.9,81.309C563.039,81.457 563.129,81.801 563.168,82.34L563.236,83.176C563.248,83.336 563.263,83.469 563.291,83.576C563.312,83.69 563.354,83.804 563.408,83.91L564.215,83.91L564.215,83.701C564.151,83.643 564.108,83.576 564.08,83.496C564.043,83.401 564.016,83.285 564.008,83.145L563.938,82.173C563.891,81.7 563.829,81.376 563.749,81.2C563.632,80.936 563.427,80.778 563.138,80.723C563.449,80.653 563.693,80.479 563.88,80.198C564.069,79.913 564.163,79.565 564.163,79.159C564.163,78.825 564.095,78.534 563.956,78.288C563.811,78.014 563.604,77.802 563.339,77.653C563.122,77.534 562.862,77.456 562.562,77.419C562.363,77.397 562.054,77.384 561.648,77.384L559.439,77.384L559.439,83.911L559.435,83.911L559.435,83.913ZM560.207,80.375L560.207,78.086L561.764,78.086C562.069,78.086 562.287,78.095 562.426,78.108C562.631,78.141 562.795,78.201 562.914,78.283C563.06,78.379 563.17,78.502 563.242,78.651C563.322,78.809 563.363,78.985 563.363,79.177C563.363,79.61 563.242,79.915 562.996,80.098C562.75,80.283 562.348,80.372 561.789,80.372L560.207,80.375Z" style="fill-rule:nonzero;"/>
        <path d="M560.436,84.912L559.434,84.912L559.434,83.912L559.434,84.912L559.434,83.912L558.437,83.912L558.437,76.385L561.646,76.385C562.075,76.385 562.403,76.398 562.681,76.428C563.08,76.477 563.466,76.585 563.825,76.782C564.253,77.016 564.612,77.386 564.825,77.799C565.061,78.218 565.163,78.693 565.161,79.16C565.163,79.717 565.027,80.28 564.71,80.755C564.697,80.776 564.684,80.796 564.669,80.816C564.833,81.211 564.873,81.566 564.934,82.103L565.004,83.066L565.214,83.254L565.214,84.911L562.797,84.911L562.518,84.368C562.425,84.185 562.35,83.985 562.321,83.824C562.27,83.613 562.253,83.434 562.24,83.259L562.17,82.414C562.163,82.279 562.149,82.168 562.136,82.082C562.086,82.078 562.028,82.076 561.962,82.076L561.205,82.076L561.205,84.913L560.436,84.913L560.436,84.912ZM561.206,79.373L561.788,79.372C562.014,79.372 562.184,79.353 562.288,79.33C562.317,79.323 562.338,79.318 562.353,79.314C562.358,79.284 562.362,79.239 562.362,79.178C562.361,79.146 562.358,79.129 562.353,79.115C562.338,79.11 562.318,79.104 562.326,79.104C562.246,79.095 562.046,79.084 561.763,79.084L561.206,79.084L561.206,79.373ZM559.434,83.912L559.434,84.912L559.434,83.912Z" style="fill:rgb(229,229,229);fill-rule:nonzero;"/>
    </g>
    <path d="M555.467,80.648C555.467,77.162 558.274,74.332 561.753,74.293C561.776,74.291 561.8,74.29 561.823,74.29C565.331,74.292 568.177,77.136 568.178,80.648L568.176,80.648C568.176,84.158 565.332,87.003 561.822,87.003C558.312,87.003 555.467,84.16 555.467,80.648ZM557.467,80.648C557.471,83.055 559.415,85 561.823,85.004C564.226,84.999 566.173,83.051 566.177,80.648C566.172,78.283 564.292,76.365 561.95,76.294L561.822,76.294C559.416,76.297 557.471,78.242 557.467,80.648ZM561.419,76.206C561.545,76.259 561.639,76.278 561.713,76.285C561.625,76.275 561.54,76.254 561.458,76.222C561.399,76.199 561.343,76.17 561.288,76.136C561.275,76.128 561.263,76.119 561.25,76.111C561.31,76.153 561.369,76.185 561.419,76.206ZM560.949,75.775C560.947,75.772 560.946,75.77 560.944,75.767C560.946,75.77 560.947,75.772 560.949,75.775ZM560.937,75.754C560.935,75.75 560.934,75.747 560.932,75.744C560.934,75.748 560.935,75.75 560.937,75.754ZM560.824,75.288C560.824,75.174 560.845,75.061 560.883,74.955C560.852,75.033 560.821,75.141 560.824,75.288Z" style="fill:rgb(229,229,229);fill-rule:nonzero;"/>
    <g id="g3" transform="matrix(1,0,0,1,-61.6856,-312.868)">
        <path id="path7" d="M142.207,336.374L142.108,425.899L118.122,418.098L118.122,312.868L148.74,320.964C168.339,326.231 180.332,336.471 180.138,354.414C179.943,375.287 170.289,383.671 151.471,378.21L151.471,337.056C151.469,332.08 142.207,331.789 142.207,336.374Z" style="fill:rgb(222,0,41);fill-rule:nonzero;"/>
        <path id="path9" d="M107.102,400.738L95.791,404.543C88.477,407.08 82.237,401.131 88.965,398.689L94.425,396.742L73.85,390.205C67.512,392.353 61.562,396.935 61.954,403.373C62.344,409.906 77.263,411.469 88.769,413.32C99.495,415.074 109.246,414.099 118.12,410.978L118.12,404.248L107.102,400.738ZM142.302,425.9L163.267,418.587L142.107,411.858L142.107,425.416L142.302,425.9Z" style="fill:rgb(243,194,2);fill-rule:nonzero;"/>
        <path id="path11" d="M198.08,406.299L198.469,406.2C207.636,402.982 211.536,398.493 210.561,394.302C209.001,387.281 197.788,383.476 180.528,382.208C168.144,381.331 155.956,384.062 144.06,388.155L142.11,388.841L163.465,395.474L175.945,391.277C189.012,388.841 194.278,393.131 181.7,397.131L175.458,399.277L198.08,406.299ZM118.122,375.286L108.663,378.503L118.122,381.429L118.122,375.286Z" style="fill:rgb(50,109,179);fill-rule:nonzero;"/>
        <path id="path13" d="M163.268,418.585L198.08,406.299L175.456,399.277L142.108,410.687L142.108,411.857L163.268,418.585ZM118.122,397.033L107.103,400.738L118.122,404.25L118.122,397.033ZM142.107,402.788L142.107,388.843L163.462,395.474L142.107,402.788ZM94.425,396.742L118.121,388.257L118.121,381.431L108.662,378.504L74.338,390.109C74.241,390.109 74.046,390.205 73.851,390.205L94.425,396.742Z" style="fill:rgb(0,170,158);fill-rule:nonzero;"/>
    </g>
</svg>
